X:1
T:Gaudeamus
T:Gaudeamus
T:André Vierendeels (20/05/11)
C:André Vierendeels
C:(20/05/11)
%%score [ 1 2 3 4 ]
L:1/8
Q:1/4=120
M:2/2
K:F
V:1 treble nm="Soprano" snm="S"
V:2 treble nm="Alto" snm="A"
V:3 treble-8 nm="Tenor" snm="T"
V:4 bass nm="Bass" snm="B"
V:1
 C2 D2 D4 | A2 B2 A4 | A3 G A2 G2 | F2 G2 (3G2 c2 A2 | A4 G3 A | B2 A2 B4 | A4 z4 | c4 A2 B2 | %8
w: Gau- de- a-|* * mus|o- * mnes _|in _ Do- * *|mi _ _|_ _ no,|_|di em _|
 B4 A4 | Bc d2 c4 | A6 B2- | B4 A4 | F2 G2 G4 | (3A2 c2 A2 G2 A2 | G4 F2 A2 | G2 c4 A2 | A4 =B4 | %17
w: fe- stum|ce- * * le-|bran- *|* tes|sub ho- no-|* * * re _|_ San- cto-|rum _ o-|mni- i-|
 A8 | D4 A2 B2 | c4 B4 | c8 | c8 | d4 c4 | A2 B2 A2 B2 | c2 G2 c4 | B4 c4- | c2 =B2 c4 | F2 G2 G4 | %28
w: um:|de quo- *|rum so-|lem|ni-|ta- te|gau- * * *|* * dent|An- *|* ge- li,|et col- lau-|
 A2 c2 A2 G2 | A4 G4 | z8 | F2 G2 E2 F2 | DEFG A4 | c2 d2 A2 F2 | A4 F4 || F2 G2 A2 A2 | %36
w: |dant _||Fi- * * li-|um _ _ _ _|De- * * *|* i.|Ex- sul- * ta-|
 A2 A2 c2 A2 | A2 A2 A2 G2 | G4 A4 | B2 A2 B2 c2 | A2 F4 A2 | B2 B2 A3 G | F8 || F2 G2 A2 A2 | %44
w: te ju- * sti|in Do- mi- *|no: _|re- * ctos _|de- cet col-|lau- da- * ti-|o.|Glo- ri- * a|
 A2 A2 A2 A2 | A2 A4 A2 | A2 c2 A2 A2 | A2 G2 G4 | A8 | c8 | c8 | z4 d4 | c8- | c4 B4 | A4 G2 F2 | %55
w: Pa- tri et Fi-|li- o et|Spi _ ri- tu-|i _ San-|cto,|et|nunc|et|sem-||per et _|
 G2 A2 A2 A2 | A2 A2 (3A2 c2 A2 | G2 F2 F4 | D2 C2 D4 | F8 |] %60
w: in _ sae- cu-|la sae- cu- * *|lo- rum. A|men. _ _|_|
V:2
 z8 | z8 | z4 F2 G2 | A2 G2 BAGF- | FGAG B3 A | FEFC G4 | ^F4 z4 | A4 F2 G2 | G4 F4 | D2 G2 G4 | %10
w: ||O- mnes|in _ Do- * * *||* * * * mi-|no,|di- em _|fe- stum|ce- * le-|
 F4 D2 G2 | G4 F4 | z8 | F4 D2 F2 | E4 F4 | G6 F2 | F4 G4 | E4 z4 | F2 G2 F2 G2 | F2 F2 G2 G2 | %20
w: bran- * *|* tes||sub ho- no-|re San-|cto- rum|o- mni|um:|de _ quo- *|rum- so- lem- ni-|
 G4 (3A2 c2 A2 | G2 A2 G4 | F2 G2 F4 | F2 G2 A2 GA | G3 F E4 | F2 G2 F2 G2 | G4 F4 | z8 | %28
w: ta _ _ _|te _ _|gau- * dent|An- * * * *|ge- * *||li, _||
 F2 G2 G4 | A2 c2 G4 | F2 G2 E2 F2 | F2 G2 A2 F2 | G2 FE D4 | E2 F2 E2 F2 | E4 D4 || %35
w: et col- lau-|* * dant|Fi- * * li-|um _ _ _|_ _ _ De-||i. _|
"^Ps." z4 F2 G2 | A2 A2 A2 A2 | c2 c2 c2 G2 | B4 A4 | G2 F2 G2 A2 | A2 A2 (3A2 c2 A2 | G2 F4 F2 | %42
w: Ex- sul-|* ta- te ju-|* st in Do-|mi- no:|re- * ctos _|de- cet col- * *|lau- da- ti-|
 D8 || z8 | F2 G2 A2 A2 | A2 A2 A2 A2 | A2 A4 A2 | A2 c2 B2 B2 | A4 F4 | G2 F2 G2 A2 | %50
w: o.||Glo- ri- * a|Pa- tri et Fi-|li- o et|Spi- ri- tu i|San- cto,|sic _ ut _|
 A2 A2 A2 A2 | A2 A2 A4 | A2 A2 c2 A2 | A2 G2 G4 | A4 E4 | E4 F4 | F4 F4 | C4 D4 | F2 C2 B,2 C2 | %59
w: e- rat in prin-|ci- pi- o|et nunc _ et|sem- * per|_ et|in sae-|cu- lo-|rum. A-||
 D8 |] %60
w: men.|
V:3
 z8 | z8 | c4 c2 B2 | A2 B2 dcBA | d2 A2 d3 c | dcdA d4 | d4 c4- | c4 d4 | _e4 c4 | dc B2 G2 AB | %10
w: ||O- mnes in|Do- * * * * *||* * * * mi-|no, di-|* em|fe- stum|ce- * * le- * *|
 c4 d2 _e2 | d4 A4 | z8 | z2 A2 B2 c2 | c4 A4 | c4 A4 | c4 G4 | c8 | z4 c4 | A4 d4 | c3 B A4 | %21
w: bran- * *|* tes||sub ho- no-|re San-|cto- rum|o- mni-|um:|de|quo- rom|so- * *|
 c3 d e2 dc | B4 A4 | z8 | c4 c4 | d4 A2 G2 | d4 c4 | z8 | z4 d2 d2 | c4 B4 | z8 | z8 | B4 F4 | %33
w: lem- ni- ta- * *|* te||gau- dent|An- * *|ge- li,||et col-|lau- dant|||Fi- li-|
 c2 B2 c2 d2- | d2 ^c2 A4 ||"^Ps." z8 | F2 G2 A2 A2 | A2 A2 c2 c2 | d2 d2 d4 | d2 c2 B2 A2 | %40
w: um De _ _|_ _ i.||Ex- sul- * ta-|te ju- sti in|Do- mi- no:|re- * ctos _|
 d2 d2 c2 c2 | d4 c4 | A8 || z8 | z8 | F2 G2 A2 A2 | A2 A2 A2 A2 | A2 E2 G4 | F8 | c8 | e8 | %51
w: de- cet col- lau-|da- ti-|o.|||Glo- ri- * a|Pa- tri et Fi-|* * li-|o,|et|nunc|
 c4 d4 | e4 f4- | f2 e2 d4- | d4 c4 | c4 c4 | c4 c4 | c4 A4- | A4 B4 | A8 |] %60
w: et _|sem- *|* * per|_ et|in sae-|cu- lo-|rum. A|_ _|men.|
V:4
 z8 | z8 | A,4 F,E,D,B,, | D,E,G,F, G,A,B,F, | D,4 G,3 D, | B,,C,D,F, G,4 | D,4 A,4 | %7
w: ||O- mnes _ _ _|in _ _ _ _ _ _ _|_ _ _|* * * * mi-|no, di-|
 F,3 E, D,2 G,2 | _E,4 F,4 | G,4 C,4 | F,4 D,2 _E,2 | G,4 D,4 | z8 | z2 F,2 G,2 F,2 | C,4 F,4 | %15
w: em _ _ fe-|stum ce-|le- bran-||* tes||sub ho- no-|re San-|
 E,6 D,2 | F,4 E,4 | A,8 | z8 | F,4 G,4 | E,4 F,4 | C,2 A,,2 C,4 | B,,4 F,4 | D,2 E,2 F,2 G,2 | %24
w: cto- rum|o- mni-|um:||de quo-|rum so-|llem- ni- ta-|te gau-|dant _ _ _|
 E,4 A,4 | B,2 G,2 F,2 E,2 | G,F,D,E, F,4 | z8 | z4 D,2 D,2 | F,4 G,4 | z8 | z8 | G,4 D,4 | %33
w: An- ge-||* * * * li,||et col-|lau- dant|||Fi- li-|
 A,2 G,2 A,2 B,2 | A,4 D,4 ||"^Ps." z8 | z4 F,2 G,2 | A,2 A,2 F,2 C,2 | G,2 G,2 D,4 | %39
w: um De- * *|* i.||Ex- sul-|* ta- te in|Do- mi- no:|
 G,2 A,2 G,2 F,2 | D,2 D,2 F,4 | G,2 B,2 F,3 E, | D,8 || z8 | z8 | z8 | F,2 G,2 A,2 A,2 | %47
w: re- * ctos _|de- cet col-|lau- da- * *|o.||||Glo- ri- * a|
 F,2 C,2 G,4 | D,8 | E,6 F,2 | A,8 | A,4 D,4 | A,4 F,4- | F,4 G,4 | D,4 E,4 | C,4 F,4 | F,4 F,4 | %57
w: Pa- * *|tri,|et _|nunc|et _|sem- *||per et|in sae-|cu- lo-|
 E,4 D,4- | D,2 F,2 G,4 | D,8 |] %60
w: rum. A-||men.|

